<?xml version="1.0" encoding="UTF-8"?>
<map version="1.10" tiledversion="1.10.2" orientation="orthogonal" renderorder="right-down" width="15" height="15" tilewidth="16" tileheight="16" infinite="0">
 <tileset firstgid="1" name="fe8-metatiles-16px-4096" tilewidth="16" tileheight="16" tilecount="4096" columns="64"/>
 <layer id="1" name="Main" width="15" height="15">
  <data encoding="csv">
521,521,521,3229,3233,3237,3229,3233,3237,521,1725,2989,3117,2985,2453,
521,3269,2881,3357,3361,3365,3357,3361,3365,2505,3001,3229,3233,3237,3005,
2881,2881,3269,3485,3489,3493,3485,3489,3493,2109,2873,3357,3361,3365,2717,
521,3393,2881,793,1605,1349,1349,1229,2997,2473,2241,3485,3489,3493,521,
521,521,833,1605,925,3269,521,2881,3125,2241,3269,521,1313,1069,521,
521,521,3269,953,281,285,521,1409,2873,3261,3729,2881,937,1305,521,
2881,521,521,177,25,321,1973,1697,1985,521,521,3393,281,285,521,
3265,3269,521,3269,569,3601,1725,1697,1717,2877,2881,281,445,669,3137,
2997,3001,3265,521,409,25,285,2993,2369,521,449,669,3137,3141,3129,
2985,2369,2505,3001,521,665,669,3269,521,521,2973,1537,1545,1989,3133,
3229,3233,3237,2109,2117,3269,3729,521,521,1537,1697,2333,2053,1969,1989,
3357,3361,3365,2237,2181,2373,57,521,2997,2325,1825,2213,2349,2177,2341,
3485,3489,3493,521,3005,281,669,3009,1829,1969,3333,1925,2201,1837,2453,
585,1605,1053,1077,177,669,1537,2437,2349,2469,2461,1697,2213,2989,1977,
1605,1605,1605,1189,521,1973,1697,2473,3333,2197,2221,1701,2113,3105,3109
  </data>
 </layer>
</map>
